X:1
T:2. Mon amy
T:2. Mon amy
T:(Ronde 2)
T:Tielman Susato
C:Tielman Susato
%%score 1 2 3 4
L:1/8
M:4/2
K:C
V:1 treble 
V:2 treble 
V:3 treble 
V:4 treble 
V:1
 D4 D4 A4 A4 | c4 B2 A2 B4 A4 | c6 B2 A4 G4 | A6 G2 F4 E4 :: A2 G2 A2 B2 c6 B2 | A4 G4 F4 D4 | %6
 G6 E2 F4 D4 | A2 G2 F2 E2 F8 :: D4 D4 E2 F2 G2 A2 | F6 D2 E2 F2 G2 A2 | F6 F2 E4 E4 | %11
 A6 F2 G4 E4 | D4 D4 A6 F2 | G4 E4 D8 :| %14
V:2
 A,8 D4 D4 | C4 C4 E4 C4 | C4 G4 F2 D2 E4 | E6 D2 C8 :: A,4 A,2 F,2 G,4 A,4 | E4 E4 D2 E2 F2 E2 | %6
 D4 E6 D2 D4- | D4 ^C4 D8 :: A,4 A,4 C4 C4 | A,6 B,2 C4 C4 | A,6 B,2 C4 C4 | F6 E2 D4 ^C4 | %12
 D4 A,4 F6 E2 | D4 ^C4 D8 :| %14
V:3
 D,4 D,4 F,2 E,2 F,2 G,2 | A,6 G,F, G,4 A,4 | E6 D2 C2 A,2 B,4 | C6 B,2 A,4 A,4 :: %4
 C2 B,2 C2 D2 E6 D2 | C6 B,2 A,4 F,4 | G,6 G,2 D,4 F,4 | E,8 D,8 :: F,4 F,4 G,4 E,4 | %9
 F,2 G,2 A,2 F,2 G,4 E,4 | F,2 G,2 A,2 F,2 G,4 E,4 | F,4 A,4 _B,4 A,4 | F,4 F,4 F,4 A,4 | %13
 _B,4 A,4 F,8 :| %14
V:4
 D,8 D,4 D,4 | A,,8 E,4 F,4 | C,8 F,4 F,4 | A,,8 A,,4 A,,4 :: F,6 E,D, C,4 A,,4- | %5
 A,,2 B,,2 C,4 D,4 D,4 | G,,4 C,4 D,8 | A,,8 D,8 :: D,4 D,4 C,6 A,,2 | D,4 D,4 C,6 A,,2 | %10
 D,4 D,4 C,4 C,4 | D,6 D,2 G,,4 A,,4 | D,8 D,6 D,2 | G,,4 A,,4 D,8 :| %14

